assets/svgs/icon-caret-circle-left.svg

<svg width="48" height="49" viewBox="0 0 48 49" fill="none" xmlns="http://www.w3.org/2000/svg">
    <circle opacity=".2" cx="24" cy="24.8645" r="22" fill="#EAF2FB" class="svg__fill--primary-blue-01"/>
    <path d="m17 25-.7071.7071c-.3905-.3905-.3905-1.0237 0-1.4142L17 25Zm-.7071-.7071 14-14 1.4142 1.4142-14 14-1.4142-1.4142Zm1.4142 0 14 14-1.4142 1.4142-14-14 1.4142-1.4142Z" fill="#0B6AB7" class="svg__fill--primary-blue-03"/>
  </svg>

<svg width="48" height="49" viewBox="0 0 48 49" fill="none" xmlns="http://www.w3.org/2000/svg">
<circle opacity="0.2" cx="24" cy="24.8645" r="22" fill="#EAF2FB"/>
<path d="M17 25L16.2929 25.7071C15.9024 25.3166 15.9024 24.6834 16.2929 24.2929L17 25ZM16.2929 24.2929L30.2929 10.2929L31.7071 11.7071L17.7071 25.7071L16.2929 24.2929ZM17.7071 24.2929L31.7071 38.2929L30.2929 39.7071L16.2929 25.7071L17.7071 24.2929Z" fill="#0B6AB7"/>
</svg>
